svg/Octicons/alert.svg

<svg xmlns="http://www.w3.org/2000/svg" viewBox="0 0 1024 1024"><path d="m1005.85 800.25l-438.29-767c-11.395-19.941-32.601-32.25-55.57-32.25s-44.17 12.306-55.57 32.25l-438.29 767c-11.319 19.809-11.238 44.14.213 63.876 11.451 19.732 32.539 31.877 55.35 31.877h876.57c22.814 0 43.903-12.145 55.35-31.877s11.533-44.07.214-63.876m-429.85-32.25h-128v-128h128v128m0-192h-128v-256h128v256"/></svg>

<svg height="1024" width="1024" xmlns="http://www.w3.org/2000/svg">
  <path d="M1005.854 800.247l-438.286-767C556.173 13.30600000000004 534.967 1 512 1s-44.173 12.306-55.567 32.247l-438.286 767c-11.319 19.809-11.238 44.144 0.213 63.876C29.811 883.855 50.899 896 73.714 896h876.572c22.814 0 43.903-12.145 55.354-31.877S1017.173 820.056 1005.854 800.247zM576 768H448V640h128V768zM576 576H448V320h128V576z" />
</svg>
